picto/socket-framed.svg

<svg class="color-immutable" width="30" height="30" viewBox="0 0 30 30" fill="none" xmlns="http://www.w3.org/2000/svg"><path d="M30 0H0V30H30V0Z" fill="#2D327D"/><path d="M25.5 3C26.325 3 27 3.675 27 4.5V25.5C27 26.325 26.325 27 25.5 27H4.5C3.675 27 3 26.325 3 25.5V4.5C3 3.675 3.675 3 4.5 3H25.5ZM25.5 2.625H4.5C3.46613 2.625 2.625 3.46613 2.625 4.5V25.5C2.625 26.5339 3.46613 27.375 4.5 27.375H25.5C26.5339 27.375 27.375 26.5339 27.375 25.5V4.5C27.375 3.46613 26.5339 2.625 25.5 2.625Z" fill="white"/><path d="M17.475 18.0938H13.3125C12.0719 18.0938 11.0625 17.0844 11.0625 15.8438C11.0625 14.6031 12.0719 13.5938 13.3125 13.5938H14.4389C15.0592 13.5938 15.5639 13.0891 15.5639 12.4688C15.5639 11.8484 15.0592 11.3438 14.4389 11.3438H6V10.2188H14.4389C15.6796 10.2188 16.6889 11.2281 16.6889 12.4688C16.6889 13.7094 15.6796 14.7188 14.4389 14.7188H13.3125C12.6922 14.7188 12.1875 15.2234 12.1875 15.8438C12.1875 16.4641 12.6922 16.9688 13.3125 16.9688H17.475V18.0938Z" fill="white"/><path d="M20.625 19.7812H19.5C18.5681 19.7812 17.8125 19.0257 17.8125 18.0938V16.9688C17.8125 16.0368 18.5681 15.2812 19.5 15.2812H20.625C20.9357 15.2812 21.1875 15.5331 21.1875 15.8438V19.2188C21.1875 19.5294 20.9357 19.7812 20.625 19.7812Z" fill="white"/><path d="M23.4375 16.125H21.525V16.6875H23.4375C23.5928 16.6875 23.7188 16.5616 23.7188 16.4062C23.7188 16.2509 23.5928 16.125 23.4375 16.125Z" fill="white"/><path d="M23.4375 18.375H21.525V18.9375H23.4375C23.5928 18.9375 23.7188 18.8116 23.7188 18.6562C23.7188 18.5009 23.5928 18.375 23.4375 18.375Z" fill="white"/></svg>

<svg class="color-immutable" width="30" height="30" viewBox="0 0 30 30" fill="none" xmlns="http://www.w3.org/2000/svg"><g clip-path="url(#a)"><path d="M30 0H0v30h30V0Z" fill="#2D327D"/><path d="M25.5 3c.825 0 1.5.675 1.5 1.5v21c0 .825-.675 1.5-1.5 1.5h-21c-.825 0-1.5-.675-1.5-1.5v-21C3 3.675 3.675 3 4.5 3h21Zm0-.375h-21A1.877 1.877 0 0 0 2.625 4.5v21c0 1.034.841 1.875 1.875 1.875h21a1.877 1.877 0 0 0 1.875-1.875v-21A1.877 1.877 0 0 0 25.5 2.625Z" fill="#fff"/><path d="M17.475 18.094h-4.163c-1.24 0-2.25-1.01-2.25-2.25s1.01-2.25 2.25-2.25h1.127a1.126 1.126 0 0 0 0-2.25H6v-1.125h8.439c1.24 0 2.25 1.01 2.25 2.25s-1.01 2.25-2.25 2.25h-1.127a1.126 1.126 0 0 0 0 2.25h4.163v1.125ZM20.625 19.781H19.5a1.688 1.688 0 0 1-1.688-1.687v-1.125c0-.932.756-1.688 1.688-1.688h1.125c.31 0 .563.252.563.563v3.375c0 .31-.252.562-.563.562ZM23.438 16.125h-1.913v.563h1.913a.281.281 0 0 0 0-.563ZM23.438 18.375h-1.913v.563h1.913a.281.281 0 0 0 0-.563Z" fill="#fff"/></g><defs><clipPath id="a"><path fill="#fff" d="M0 0h30v30H0z"/></clipPath></defs></svg>
